DynamicPictureStudio/Content/svg/iphone.svg

<?xml version="1.0" encoding="UTF-8" standalone="no"?>
<svg
   xmlns:sketch="http://www.bohemiancoding.com/sketch/ns"
   xmlns:dc="http://purl.org/dc/elements/1.1/"
   xmlns:cc="http://creativecommons.org/ns#"
   xmlns:rdf="http://www.w3.org/1999/02/22-rdf-syntax-ns#"
   xmlns:svg="http://www.w3.org/2000/svg"
   xmlns="http://www.w3.org/2000/svg"
   xmlns:sodipodi="http://sodipodi.sourceforge.net/DTD/sodipodi-0.dtd"
   xmlns:inkscape="http://www.inkscape.org/namespaces/inkscape"
   width="221px"
   height="464px"
   viewBox="0 0 221 464"
   version="1.1"
   id="svg4164"
   inkscape:version="0.91 r13725"
   sodipodi:docname="iphone.svg">
  <metadata
     id="metadata4174">
    <rdf:RDF>
      <cc:Work
         rdf:about="">
        <dc:format>image/svg+xml</dc:format>
        <dc:type
           rdf:resource="http://purl.org/dc/dcmitype/StillImage" />
        <dc:title>iphone</dc:title>
      </cc:Work>
    </rdf:RDF>
  </metadata>
  <sodipodi:namedview
     pagecolor="#ffffff"
     bordercolor="#666666"
     borderopacity="1"
     objecttolerance="10"
     gridtolerance="10"
     guidetolerance="10"
     inkscape:pageopacity="0"
     inkscape:pageshadow="2"
     inkscape:window-width="1280"
     inkscape:window-height="962"
     id="namedview4172"
     showgrid="false"
     inkscape:zoom="0.50862069"
     inkscape:cx="110.5"
     inkscape:cy="232"
     inkscape:window-x="1272"
     inkscape:window-y="-8"
     inkscape:window-maximized="1"
     inkscape:current-layer="svg4164" />
  <title
     id="title4166">iphone</title>
  <description>Created with Sketch (http://www.bohemiancoding.com/sketch)</description>
  <defs
     id="defs4168" />
  <g
     id="Page-1"
     stroke="none"
     stroke-width="1"
     fill="none"
     fill-rule="evenodd"
     sketch:type="MSPage"
     style="fill:#ff0000;fill-opacity:1">
    <path
       d="M3,164 L0,164 L0,147 L3,147 L3,126 L0,126 L0,109 L3,109 L3,87 L0,87 L0,66 L3,66 L3,34.0058827 C3,16.3333538 17.3228613,2 34.9910061,2 L149,2 L149,0 L185,0 L185,2 L189.008994,2 C206.675354,2 221,16.3295218 221,34.0058827 L221,431.994117 C221,449.666646 206.677139,464 189.008994,464 L34.9910061,464 C17.3246455,464 3,449.670478 3,431.994117 L3,164 Z M94.0088498,40 C93.4516774,40 93,40.4433532 93,41.0093689 L93,42.9906311 C93,43.5480902 93.4508527,44 93.9996148,44 L116.404905,44 L128.992078,44 C129.548738,44 130,43.5566468 130,42.9906311 L130,41.0093689 C130,40.4519098 129.558697,40 128.99115,40 L94.0088498,40 Z M111.5,29 C113.985281,29 116,26.9852815 116,24.5 C116,22.0147185 113.985281,20 111.5,20 C109.014719,20 107,22.0147185 107,24.5 C107,26.9852815 109.014719,29 111.5,29 Z M17.9944647,66 C16.8929523,66 16,66.9024743 16,68.0096543 L16,398.990346 C16,400.100247 16.8987528,401 17.9944647,401 L206.005535,401 C207.107048,401 208,400.097526 208,398.990346 L208,68.0096543 C208,66.8997529 207.101247,66 206.005535,66 L17.9944647,66 Z M112,450 C122.493411,450 131,441.493411 131,431 C131,420.506589 122.493411,412 112,412 C101.506589,412 93,420.506589 93,431 C93,441.493411 101.506589,450 112,450 Z M81,45 C82.6568543,45 84,43.6568543 84,42 C84,40.3431457 82.6568543,39 81,39 C79.3431457,39 78,40.3431457 78,42 C78,43.6568543 79.3431457,45 81,45 Z M112,448 C121.388841,448 129,440.388841 129,431 C129,421.611159 121.388841,414 112,414 C102.611159,414 95,421.611159 95,431 C95,440.388841 102.611159,448 112,448 Z"
       id="Apple-iPhone-5S"
       fill="#000000"
       sketch:type="MSShapeGroup"
       style="fill:#ff0000;fill-opacity:1" />
  </g>
</svg>

<?xml version="1.0" encoding="UTF-8" standalone="no"?>
<!-- Created with Inkscape (http://www.inkscape.org/) -->

<svg
   xmlns:sketch="http://www.bohemiancoding.com/sketch/ns"
   xmlns:dc="http://purl.org/dc/elements/1.1/"
   xmlns:cc="http://creativecommons.org/ns#"
   xmlns:rdf="http://www.w3.org/1999/02/22-rdf-syntax-ns#"
   xmlns:svg="http://www.w3.org/2000/svg"
   xmlns="http://www.w3.org/2000/svg"
   xmlns:sodipodi="http://sodipodi.sourceforge.net/DTD/sodipodi-0.dtd"
   xmlns:inkscape="http://www.inkscape.org/namespaces/inkscape"
   width="210mm"
   height="297mm"
   viewBox="0 0 744.09448819 1052.3622047"
   id="svg4722"
   version="1.1"
   inkscape:version="0.91 r13725"
   sodipodi:docname="iphone.svg">
  <defs
     id="defs4724" />
  <sodipodi:namedview
     id="base"
     pagecolor="#ffffff"
     bordercolor="#666666"
     borderopacity="1.0"
     inkscape:pageopacity="0.0"
     inkscape:pageshadow="2"
     inkscape:zoom="11.313708"
     inkscape:cx="-65.930619"
     inkscape:cy="1079.3946"
     inkscape:document-units="px"
     inkscape:current-layer="layer1"
     showgrid="false"
     inkscape:window-width="1280"
     inkscape:window-height="962"
     inkscape:window-x="1272"
     inkscape:window-y="-8"
     inkscape:window-maximized="1"
     showguides="true" />
  <metadata
     id="metadata4727">
    <rdf:RDF>
      <cc:Work
         rdf:about="">
        <dc:format>image/svg+xml</dc:format>
        <dc:type
           rdf:resource="http://purl.org/dc/dcmitype/StillImage" />
        <dc:title />
      </cc:Work>
    </rdf:RDF>
  </metadata>
  <g
     inkscape:label="Layer 1"
     inkscape:groupmode="layer"
     id="layer1">
    <g
       id="Page-1"
       sketch:type="MSPage"
       style="fill:none;fill-opacity:1;fill-rule:evenodd;stroke:#000000;stroke-width:1.99925028;stroke-miterlimit:4;stroke-dasharray:none;stroke-opacity:1"
       transform="matrix(0.464174,0,0,0.464174,-102.98954,-215.44511)">
      <path
         d="m 3,164 -3,0 0,-17 3,0 0,-21 -3,0 0,-17 3,0 L 3,87 0,87 0,66 3,66 3,34.005883 C 3,16.333354 17.322861,2 34.991006,2 L 149,2 l 0,-2 36,0 0,2 4.00899,0 C 206.67535,2 221,16.329522 221,34.005883 l 0,397.988237 C 221,449.66665 206.67714,464 189.00899,464 L 34.991006,464 C 17.324645,464 3,449.67048 3,431.99412 Z M 17.994465,66 C 16.892952,66 16,66.902474 16,68.009654 L 16,398.99035 C 16,400.10025 16.898753,401 17.994465,401 l 188.011065,0 C 207.10705,401 208,400.09753 208,398.99035 L 208,68.009654 C 208,66.899753 207.10125,66 206.00553,66 Z M 112,450 c 10.49341,0 19,-8.50659 19,-19 0,-10.49341 -8.50659,-19 -19,-19 -10.49341,0 -19,8.50659 -19,19 0,10.49341 8.50659,19 19,19 z"
         id="Apple-iPhone-5S"
         sketch:type="MSShapeGroup"
         style="fill:none;fill-opacity:1;stroke:#000000;stroke-width:1.99925029;stroke-miterlimit:4;stroke-dasharray:none;stroke-opacity:1"
         inkscape:connector-curvature="0"
         sodipodi:nodetypes="ccccccccccccssccccsssssscssssssssssssss" />
    </g>
  </g>
</svg>
